svg/aws-ec2-x1e.svg

<?xml version="1.0" encoding="UTF-8"?>
<svg xmlns="http://www.w3.org/2000/svg" xmlns:xlink="http://www.w3.org/1999/xlink" width="32" height="32" viewBox="0 0 32 32">
<path fill-rule="evenodd" fill="rgb(83.137255%, 35.686275%, 2.745098%)" fill-opacity="1" d="M 20.191406 15.457031 C 20.386719 15.234375 20.671875 15.113281 20.96875 15.121094 C 21.269531 15.121094 21.496094 15.222656 21.652344 15.421875 C 21.8125 15.621094 21.886719 15.910156 21.886719 16.289062 L 21.886719 16.363281 L 19.84375 16.363281 C 19.875 15.984375 19.988281 15.683594 20.191406 15.457031 M 21.113281 19.351562 C 21.425781 19.351562 21.726562 19.316406 22.015625 19.253906 C 22.304688 19.1875 22.554688 19.097656 22.765625 18.984375 L 22.765625 18.210938 C 22.304688 18.375 21.816406 18.464844 21.324219 18.472656 C 20.832031 18.472656 20.464844 18.363281 20.230469 18.140625 C 19.992188 17.921875 19.863281 17.574219 19.84375 17.101562 L 22.789062 17.101562 C 22.84375 16.847656 22.871094 16.554688 22.871094 16.234375 C 22.871094 15.625 22.707031 15.152344 22.378906 14.820312 C 22.050781 14.484375 21.585938 14.320312 20.976562 14.320312 C 20.265625 14.320312 19.710938 14.542969 19.316406 14.992188 C 18.921875 15.441406 18.726562 16.066406 18.726562 16.867188 C 18.726562 17.675781 18.925781 18.292969 19.332031 18.714844 C 19.734375 19.136719 20.328125 19.351562 21.113281 19.351562 M 16.429688 13.84375 L 14.683594 14.496094 L 14.683594 13.601562 L 16.53125 12.742188 L 17.539062 12.742188 L 17.539062 19.210938 L 16.429688 19.210938 Z M 8.785156 19.210938 L 10.953125 15.859375 L 8.933594 12.742188 L 10.074219 12.742188 L 11.613281 15.039062 L 13.117188 12.742188 L 14.253906 12.742188 L 12.230469 15.839844 L 14.402344 19.210938 L 13.265625 19.210938 L 11.566406 16.652344 L 9.925781 19.210938 Z M 6 26 L 26 26 L 26 6 L 6 6 Z M 30.667969 8.667969 L 30.667969 7.332031 L 27.332031 7.332031 L 27.332031 5.332031 C 27.332031 4.964844 27.035156 4.667969 26.667969 4.667969 L 24.667969 4.667969 L 24.667969 1.332031 L 23.332031 1.332031 L 23.332031 4.667969 L 20.667969 4.667969 L 20.667969 1.332031 L 19.332031 1.332031 L 19.332031 4.667969 L 16.667969 4.667969 L 16.667969 1.332031 L 15.332031 1.332031 L 15.332031 4.667969 L 12.667969 4.667969 L 12.667969 1.332031 L 11.332031 1.332031 L 11.332031 4.667969 L 8.667969 4.667969 L 8.667969 1.332031 L 7.332031 1.332031 L 7.332031 4.667969 L 5.332031 4.667969 C 4.964844 4.667969 4.667969 4.964844 4.667969 5.332031 L 4.667969 7.332031 L 1.332031 7.332031 L 1.332031 8.667969 L 4.667969 8.667969 L 4.667969 11.332031 L 1.332031 11.332031 L 1.332031 12.667969 L 4.667969 12.667969 L 4.667969 15.332031 L 1.332031 15.332031 L 1.332031 16.667969 L 4.667969 16.667969 L 4.667969 19.332031 L 1.332031 19.332031 L 1.332031 20.667969 L 4.667969 20.667969 L 4.667969 23.332031 L 1.332031 23.332031 L 1.332031 24.667969 L 4.667969 24.667969 L 4.667969 26.667969 C 4.667969 27.035156 4.964844 27.332031 5.332031 27.332031 L 7.332031 27.332031 L 7.332031 30.667969 L 8.667969 30.667969 L 8.667969 27.332031 L 11.332031 27.332031 L 11.332031 30.667969 L 12.667969 30.667969 L 12.667969 27.332031 L 15.332031 27.332031 L 15.332031 30.667969 L 16.667969 30.667969 L 16.667969 27.332031 L 19.332031 27.332031 L 19.332031 30.667969 L 20.667969 30.667969 L 20.667969 27.332031 L 23.332031 27.332031 L 23.332031 30.667969 L 24.667969 30.667969 L 24.667969 27.332031 L 26.667969 27.332031 C 27.035156 27.332031 27.332031 27.035156 27.332031 26.667969 L 27.332031 24.667969 L 30.667969 24.667969 L 30.667969 23.332031 L 27.332031 23.332031 L 27.332031 20.667969 L 30.667969 20.667969 L 30.667969 19.332031 L 27.332031 19.332031 L 27.332031 16.667969 L 30.667969 16.667969 L 30.667969 15.332031 L 27.332031 15.332031 L 27.332031 12.667969 L 30.667969 12.667969 L 30.667969 11.332031 L 27.332031 11.332031 L 27.332031 8.667969 Z M 30.667969 8.667969 "/>
</svg>

<svg role="img" viewBox="0 0 32 32" xmlns="http://www.w3.org/2000/svg"><path d="M20.191 15.457a1 1 0 0 1 .778-.336q.45.002.683.3c.16.2.235.49.235.868v.074h-2.043c.031-.379.144-.68.347-.906m.922 3.895c.313 0 .614-.036.903-.098q.434-.1.75-.27v-.773a4.5 4.5 0 0 1-1.442.262c-.492 0-.86-.11-1.094-.332q-.357-.33-.386-1.04h2.945c.055-.253.082-.546.082-.867q0-.915-.492-1.414c-.328-.336-.793-.5-1.402-.5q-1.068 0-1.66.672-.591.674-.59 1.875-.002 1.214.605 1.848.603.635 1.781.637m-4.683-5.508-1.746.652v-.894l1.847-.86h1.008v6.469h-1.11ZM8.785 19.21l2.168-3.352-2.02-3.117h1.141l1.54 2.297 1.503-2.297h1.137L12.23 15.84l2.172 3.37h-1.136l-1.7-2.558-1.64 2.559ZM6 26h20V6H6ZM30.668 8.668V7.332h-3.336v-2a.664.664 0 0 0-.664-.664h-2V1.332h-1.336v3.336h-2.664V1.332h-1.336v3.336h-2.664V1.332h-1.336v3.336h-2.664V1.332h-1.336v3.336H8.668V1.332H7.332v3.336h-2a.664.664 0 0 0-.664.664v2H1.332v1.336h3.336v2.664H1.332v1.336h3.336v2.664H1.332v1.336h3.336v2.664H1.332v1.336h3.336v2.664H1.332v1.336h3.336v2c0 .367.297.664.664.664h2v3.336h1.336v-3.336h2.664v3.336h1.336v-3.336h2.664v3.336h1.336v-3.336h2.664v3.336h1.336v-3.336h2.664v3.336h1.336v-3.336h2a.664.664 0 0 0 .664-.664v-2h3.336v-1.336h-3.336v-2.664h3.336v-1.336h-3.336v-2.664h3.336v-1.336h-3.336v-2.664h3.336v-1.336h-3.336V8.668Zm0 0" fill="rgb(83.137256%, 35.686275%, 2.745098%)" fill-rule="evenodd"/></svg>
